tools/download-figma-icons/icons/outlined-large/security.svg

<svg width="64" height="64" viewBox="0 0 64 64" fill="none" xmlns="http://www.w3.org/2000/svg">
<path fill-rule="evenodd" clip-rule="evenodd" d="M51.9998 37.0559C51.9998 42.1518 49.7288 46.8778 45.7668 50.0248L32.4999 60.5828L19.2319 50.0238C15.2709 46.8778 13 42.1518 13 37.0559V8.68297C21.4405 8.47405 24.3935 6.49757 26.791 4.89293L26.7939 4.89098L26.7959 4.88965C28.4358 3.79234 29.6201 2.99999 32.4999 2.99999C35.3788 2.99999 36.5628 3.79294 38.2007 4.88989L38.2009 4.88998L38.2019 4.8907C40.5987 6.49657 43.5501 8.474 51.9998 8.68297V37.0559ZM53.4998 5.70098C44.7998 5.70098 42.1808 3.94599 39.8708 2.39799L39.8699 2.39733C38.1102 1.21854 36.2911 0 32.4999 0C28.7079 0 26.8869 1.219 25.1249 2.39899C22.8139 3.94698 20.1929 5.70098 11.5 5.70098C10.671 5.70098 9.99996 6.37198 9.99996 7.20097V37.0559C9.99996 43.0728 12.685 48.6558 17.3649 52.3718L31.5659 63.6738C31.8389 63.8918 32.1689 63.9998 32.4999 63.9998C32.8309 63.9998 33.1609 63.8918 33.4339 63.6738L47.6338 52.3728C52.3148 48.6558 54.9998 43.0728 54.9998 37.0559V7.20097C54.9998 6.37198 54.3288 5.70098 53.4998 5.70098ZM38.0023 21.2619V25.6389H26.9963V21.2619C26.9963 18.2279 29.4653 15.7589 32.4993 15.7589C35.5333 15.7589 38.0023 18.2279 38.0023 21.2619ZM40.9992 42.5368V28.6389H23.9993V42.5368H40.9992ZM23.9963 21.2619V25.6389H22.4993C21.6703 25.6389 20.9993 26.3109 20.9993 27.1389V44.0368C20.9993 44.8658 21.6703 45.5368 22.4993 45.5368H42.4992C43.3282 45.5368 43.9992 44.8658 43.9992 44.0368V27.1389C43.9992 26.3109 43.3282 25.6389 42.4992 25.6389H41.0022V21.2619C41.0022 16.5739 37.1883 12.759 32.4993 12.759C27.8113 12.759 23.9963 16.5739 23.9963 21.2619ZM30.9994 34.3381C30.9994 33.5101 31.6704 32.8381 32.4994 32.8381C33.3284 32.8381 33.9994 33.5101 33.9994 34.3381V36.8381C33.9994 37.6661 33.3284 38.3381 32.4994 38.3381C31.6704 38.3381 30.9994 37.6661 30.9994 36.8381V34.3381Z" fill="black"/>
</svg>

<svg width="64" height="64" viewBox="0 0 64 64" fill="none" xmlns="http://www.w3.org/2000/svg"><path fill-rule="evenodd" clip-rule="evenodd" d="M52 37.056c0 5.096-2.271 9.822-6.233 12.969L32.5 60.583l-13.268-10.56C15.27 46.879 13 42.153 13 37.057V8.683c8.44-.209 11.393-2.185 13.791-3.79l.003-.002.002-.001C28.436 3.792 29.62 3 32.5 3c2.879 0 4.063.793 5.7 1.89h.002C40.599 6.498 43.55 8.475 52 8.684v28.373ZM53.5 5.7c-8.7 0-11.32-1.755-13.63-3.303C38.11 1.217 36.29 0 32.5 0c-3.792 0-5.613 1.219-7.375 2.399-2.311 1.548-4.932 3.302-13.625 3.302a1.5 1.5 0 0 0-1.5 1.5v29.855c0 6.017 2.685 11.6 7.365 15.316l14.2 11.302a1.497 1.497 0 0 0 1.869 0l14.2-11.301c4.68-3.717 7.366-9.3 7.366-15.317V7.2a1.5 1.5 0 0 0-1.5-1.5ZM38.002 21.26v4.378H26.996v-4.377a5.51 5.51 0 0 1 5.503-5.503 5.51 5.51 0 0 1 5.503 5.503ZM41 42.538V28.639H24v13.898h17ZM23.996 21.262v4.377H22.5a1.5 1.5 0 0 0-1.5 1.5v16.898a1.5 1.5 0 0 0 1.5 1.5h20a1.5 1.5 0 0 0 1.5-1.5V27.139a1.5 1.5 0 0 0-1.5-1.5h-1.497v-4.377c0-4.688-3.814-8.503-8.503-8.503-4.688 0-8.503 3.815-8.503 8.503ZM31 34.338a1.5 1.5 0 1 1 3 0v2.5a1.5 1.5 0 1 1-3 0v-2.5Z" fill="currentColor"/></svg>
